X:965
T: Lee Strand
S: B.Breathnach:"Ceol Rince na hEireann" IV/78 (gan ainm)
Z: B.Black
L: 1/8
M: 2/4
Q: 280
R: polka
K: Edor
D|: EF GA|Be dA|Bc/B/ AF|EF/E/ D2|
EF GA|Be dA|Bc/B/ AF|DF E2 :|
ee ed/e/|fe dB|dd dd/c/|Bc dB|
ee ed/e/|fe dA|Bc/B/ AF|DF E2 :|
